X:436
T:Lady Mary Menzies
R:Reel
B:The Athole Collection
M:C|
L:1/8
K:F
f|cFAF cFfd|cFAF dGGA|cFcA dfag|fdcA fFF:|
|:e|fcce fgag|fdcA gdde|fdcA fgag|fdcA fFF:|

